public/config/images/twitter@2x.svg

<svg width="24" height="25" viewBox="0 0 24 25" fill="none" xmlns="http://www.w3.org/2000/svg">
<path d="M22 6.1193C21.2483 6.4454 20.4534 6.66096 19.64 6.7593C20.4982 6.24662 21.1413 5.44008 21.45 4.4893C20.6436 4.96936 19.7608 5.3076 18.84 5.4893C18.2245 4.82187 17.405 4.3776 16.5098 4.22615C15.6147 4.07471 14.6945 4.22466 13.8938 4.65249C13.093 5.08032 12.4569 5.76183 12.0852 6.59014C11.7135 7.41844 11.6273 8.34669 11.84 9.2293C10.2094 9.14683 8.61444 8.72225 7.15865 7.98316C5.70287 7.24407 4.41885 6.20699 3.39 4.9393C3.02914 5.56947 2.83952 6.28312 2.84 7.0093C2.83872 7.68368 3.00422 8.34792 3.32176 8.94287C3.63929 9.53781 4.09902 10.045 4.66 10.4193C4.00798 10.4016 3.36989 10.2266 2.8 9.9093V9.9593C2.80489 10.9042 3.13599 11.8184 3.73731 12.5473C4.33864 13.2761 5.17326 13.7749 6.1 13.9593C5.74326 14.0679 5.37288 14.1251 5 14.1293C4.74189 14.1263 4.48442 14.1029 4.23 14.0593C4.49391 14.8721 5.00462 15.5824 5.69107 16.0915C6.37753 16.6005 7.20558 16.8829 8.06 16.8993C6.6172 18.0346 4.83588 18.6542 3 18.6593C2.66574 18.6604 2.33174 18.6404 2 18.5993C3.87443 19.8096 6.05881 20.452 8.29 20.4493C9.82969 20.4653 11.3571 20.1743 12.7831 19.5934C14.2091 19.0124 15.505 18.1532 16.5952 17.0658C17.6854 15.9784 18.548 14.6847 19.1326 13.2602C19.7172 11.8357 20.012 10.309 20 8.7693C20 8.5993 20 8.4193 20 8.2393C20.7847 7.65411 21.4615 6.93673 22 6.1193V6.1193Z" fill="#F69382"/>
</svg>

<svg width="24" height="25" fill="none" xmlns="http://www.w3.org/2000/svg"><path d="M22 6.12a8.49 8.49 0 01-2.36.64 4.13 4.13 0 001.81-2.27 8.21 8.21 0 01-2.61 1 4.1 4.1 0 00-7 3.74 11.64 11.64 0 01-8.45-4.29 4.16 4.16 0 00-.55 2.07 4.09 4.09 0 001.82 3.41 4.05 4.05 0 01-1.86-.51v.05a4.1 4.1 0 003.3 4 3.929 3.929 0 01-1.1.17 4.896 4.896 0 01-.77-.07 4.11 4.11 0 003.83 2.84A8.22 8.22 0 012 18.6a11.57 11.57 0 006.29 1.85A11.59 11.59 0 0020 8.77v-.53a8.43 8.43 0 002-2.12z" fill="#F69382"/></svg>
